!!!!SEGMENT: mpm331-Chinese-Japanese_M.krn
!!!COM: Otto Langey
!!!OTL: Chinese-Japanese
!!!OPR:Motion Picture Moods for Pianists and Organists 
!!!YOY:1924
!!!ONB: National
**kern	**dynam
*clefG2	*
*k[]	*
*a:	*
*M4/4	*
*met(c)	*
=1	=1
!LO:TX:a:B:t=Moderato	!
[1e	mf <
=2	=2
1e_	[ > ]]
=3	=3
4e]	.
(8qddd#X/	.
2eee)	.
(8qddd#/	.
[4eee)	.
=4	=4
!LO:TX:b:i:t=dim.	!
4eee]	.
(8qddd#X/	.
[2.eee)	.
=5	=5
2eee_	p
4eee]	.
4r	.
=6	=6
1r	.
!!linebreak:original
=7!|:	=7!|:
(4e	p
4g	.
4a	.
4g	.
=8	=8
4e	.
4d)	.
[2e	.
=9	=9
4e]	.
(8aL	.
8gJ	.
4e)	.
4d	.
=10	=10
1e	mf
=11	=11
1r	>]
=12	=12
4r	p
(4e	.
[2g	.
=13	=13
4g])	.
(8aL	.
8gJ	.
[2e	.
=14	=14
4e])	.
(8aL	.
8gJ	.
8eL	.
8d	.
8e	.
8gJ	.
=15	=15
1e)	mf
=16	=16
1r	>]
=17	=17
(4b	p
4a)	.
[2b	.
=18	=18
4b]	.
(8eeL	.
8ddJ	.
[2b)	.
=19	=19
4b]	.
4a	.
4b	.
4dd	.
=20	=20
1b	.
=21	=21
(4gg	.
4ee	.
[2dd)	.
=22	=22
4dd]	.
(8eeL	.
8ddJ	.
[2b)	.
=23	=23
4b]	.
(8eeL	.
8ddJ	.
4b	.
4a)	.
=24	=24
1b	.
=25	=25
(4gg	mf
4ee	.
[2dd	.
=26	=26
4dd])	.
(8eeL	.
8ddJ	.
[2b)	.
=27	=27
4b]	.
!LO:TX:b:i:t=dim.	!
(8eeL	.
8ddJ	.
4b)	.
(4dd	.
=28	=28
[1b)	>
=29	=29
1b]	]]
=30:|!	=30:|!
(4ff#X	p
4gg	<
4ff#	.
4aa)	[[
=31	=31
8cccL	mf
8cccJ	.
2.ccc	.
=32	=32
(8qaa#X/	p
8bb'L)	.
8bb'J	.
4aan	.
8bb'L	.
8bb'J	.
4aa	.
=33	=33
8gg'L	.
8gg'J	.
4ff#X	.
2r	>]
=34	=34
(4ff#X	p
4gg	<
4ff#	.
4aa)	[[
=35	=35
8cccL	mf
8cccJ	.
2.ccc	.
=36	=36
8bb'L	p
8bb'J	.
4aa	.
8bb'L	.
8bb'J	.
4aa	.
=37	=37
8gg'L	.
8gg'J	.
4ff#X	.
2r	.
=38	=38
(8qddd#X/	pp
(8eeeL)	.
8bb)	.
8bb'	.
8bb'J	.
2ddd#t	.
(16qqccc#X/LL	.
16qqddd#/JJ)	.
=39	=39
(8eeeL	.
8bb)	.
8bb'	.
8bb'J	.
2ccc#Xt	.
(16qqbb/LL	.
16qqccc#/JJ)	.
=40	=40
(8dddL	.
8aa)	.
8aa	.
8aaJ	.
2cccT	.
(16qqbb/LL	.
16qqccc/JJ)	.
=41	=41
(8qee/	.
8bbL)	.
8ggJ	.
8ff#XL	.
8eeJ	.
2ff#t	.
(16qqee/LL	.
16qqff#/JJ)	.
=42	=42
(8eeL	p
8b)	.
8b	.
8bJ	.
2dd#Xt	.
(16qqcc#X/LL	.
16qqdd#/JJ)	.
=43	=43
(8eeL	.
8b)	.
8b'	.
8b'J	.
2cc#Xt	.
(16qqb/LL	.
16qqcc#/JJ)	.
=44	=44
(8ddL	.
8a)	.
8a	.
8aJ	.
2ccT	.
(16qqb/LL	.
16qqcc/JJ)	.
=45	=45
(8qe/	.
(8bL)	.
8gJ)	.
8f#XL	.
8eJ	.
2f#t	.
(16qqe/LL	.
16qqf#/JJ)	.
=46	=46
2e	.
(8d#XL	.
8B)	.
8B'	.
8B'J	.
=47	=47
2e	.
(8d#XL	.
8B)	.
8B	.
8BJ	.
=48	=48
!LO:TX:b:i:t=cresc.	!
2e	.
2g	.
=49	=49
!LO:TX:a:i:t=rit.	!
2b	.
(8bL	.
8g)	.
8g	.
8gJ	.
=50	=50
!LO:TX:a:i:t=a tempo	!
(4ee	f
4gg	.
4aa	.
4gg)	.
=51	=51
(4ee	.
4dd)	.
[2ee	.
=52	=52
4ee]	.
8aaL	.
8ggJ	.
4ee	.
4dd	.
=53	=53
[1ee	.
=54	=54
4ee]	.
(4ee	.
[2gg)	.
=55	=55
4gg]	.
(8aaL	.
8ggJ	.
[2ee	.
=56	=56
4ee])	.
(8aaL	.
8ggJ	.
8eeL	.
8dd	.
8ee	.
8ggJ)	.
=57	=57
1ee	.
=58	=58
(4bb	mf
4aa)	.
[2bb	.
=59	=59
4bb]	.
(8eeeL	.
8dddJ	.
[2bb)	.
=60	=60
4bb]	.
(4aa	.
4bb	.
4ddd)	.
=61	=61
1bb	>]
=62	=62
(4ggg	mf >
4eee)	.
[2ddd	]
=63	=63
4ddd]	.
(8eeeL	.
8dddJ	.
[2bb)	.
=64	=64
4bb]	.
!LO:TX:b:i:t=dim.	!
(8eeeL	.
8dddJ	.
4bb	.
4aa)	.
=65	=65
1bb	.
=66	=66
4ee	p
4gg	.
4aa	.
4gg	.
=67	=67
4ee	.
4dd	.
[2ee	.
=68	=68
4ee]	.
(8aaL	.
8ggJ	.
4ee)	.
4dd	.
=69	=69
!LO:TX:b:i:t=dim.	!
[1ee	.
=70	=70
4ee]	.
4dd	.
[2ee	.
=71	=71
2.ee]	pp
!LO:TX:a:i:t=rit.	!
(4d	.
=72	=72
[1e)	>
=73	=73
2e_	.
4e_	.
8e]	]
8r	.
==	==
*-	*-
!!!ENC: Yukiko Yoden
!!!END: 2022/03/21